src/icons/technologies/Androidstudio.svg

<?xml version="1.0" encoding="UTF-8"?>
<svg width="50" height="50" version="1.1" viewBox="0 0 256 256" xmlns="http://www.w3.org/2000/svg">
 <path d="m103.86 227.54c-3.375-0.802-6.2016-2.675-10.156-6.731-6.6048-6.776-11.967-9.599-21.284-11.201-9.6666-1.664-13.961-5.258-16.543-13.838-3.1881-10.593-6.5195-15.665-13.839-21.072-8.3047-6.134-10.435-11.542-8.4088-21.345 1.8774-9.078 1.1589-15.533-2.6538-23.832-4.55-9.901-3.9885-15.191 2.4729-23.303 5.9239-7.4379 7.7824-12.353 8.6699-22.924 0.8943-10.668 3.8622-15.044 12.604-18.586 7.2943-2.956 13.536-8.0879 16.995-13.974 4.0005-6.8079 4.5842-7.5879 7.0639-9.4379 4.0005-2.985 7.2346-3.811 13.394-3.4253 10.701 0.6707 16.435-0.6144 23.62-5.2924 9.368-6.0979 15.05-6.0979 24.417 0 7.187 4.678 12.922 5.9631 23.621 5.2924 10.119-0.6349 14.329 2.0207 20.497 12.932 3.057 5.405 9.303 10.667 16.142 13.594 9.738 4.1677 12.567 7.9718 13.286 17.857 0.778 10.706 2.973 16.691 8.788 23.965 6.475 8.096 7.04 13.392 2.486 23.303-3.811 8.299-4.531 14.754-2.654 23.832 2.028 9.803-0.104 15.211-8.407 21.345-7.32 5.407-10.651 10.479-13.839 21.072-2.582 8.58-6.878 12.174-16.543 13.838-9.339 1.606-14.704 4.437-21.285 11.223-7.295 7.523-12.524 8.764-22.721 5.393-8.341-2.758-14.763-2.77-23.069-0.043-5.82 1.91-8.921 2.243-12.654 1.359z" fill="#fff"/>
 <path d="m163.85 119.52c-0.63-1.287-0.09-2.828 1.195-3.458s2.828-0.09 3.458 1.195c0.629 1.285 0.09 2.828-1.195 3.458-1.285 0.629-2.828 0.09-3.458-1.195zm12.505 25.702c-0.63-1.285-0.09-2.828 1.195-3.457 1.285-0.63 2.828-0.089 3.457 1.196 0.63 1.285 0.091 2.826-1.194 3.456s-2.828 0.091-3.458-1.195zm1.092-33.35c-8.224-5.872-18.956-7.39-28.89-3.546l27.155 55.839c9.151-5.436 14.575-14.83 15.037-24.919l10.307 0.733c0.141 0.011 0.282-8e-3 0.417-0.053 0.134-0.045 0.258-0.116 0.364-0.21 0.106-0.093 0.193-0.206 0.255-0.333 0.062-0.128 0.099-0.266 0.107-0.407 0.01-0.141-8e-3 -0.283-0.052-0.417-0.045-0.134-0.117-0.258-0.21-0.364-0.093-0.107-0.206-0.193-0.333-0.256-0.127-0.062-0.266-0.098-0.407-0.106l-10.436-0.746c-0.102-4.395-1.155-8.88-3.251-13.198-2.094-4.306-4.973-7.904-8.366-10.706l5.86-8.675c0.155-0.235 0.21-0.521 0.155-0.797s-0.216-0.519-0.448-0.678c-0.232-0.158-0.518-0.219-0.794-0.169-0.277 0.05-0.523 0.206-0.686 0.436l-5.784 8.56" fill="#3DDC84"/>
 <path d="m152.41 132.9c-7.659 3.702-15.897 5.577-24.482 5.577-9.354 7e-3 -18.563-2.315-26.795-6.758-8.2316-4.442-15.228-10.864-20.357-18.687-0.809-1.233-2.4798-1.529-3.6745-0.655l-9.8577 7.26c-1.1179 0.823-1.3756 2.391-0.5922 3.548 6.7436 10.061 15.862 18.304 26.55 24.002 10.687 5.698 22.614 8.674 34.726 8.666 11.22 0 22.002-2.454 32.039-7.3l-7.557-15.653zm-29.904-61.776h10.667v-11.785c0-2.944-2.391-5.3333-5.334-5.3333-2.944 0-5.333 2.3893-5.333 5.3333v11.785z" fill="#4285F4"/>
 <path d="m113.96 94.123-36.666 75.464c-0.7926 1.627-1.2223 3.407-1.2595 5.217l-0.2185 9.883c-0.0512 2.558 2.9048 3.997 4.8845 2.378l7.6339-6.273c1.401-1.147 2.5365-2.585 3.328-4.213l36.139-74.399-13.829-8.0453-0.012-0.012zm65.696 80.669c-0.037-1.813-0.474-3.586-1.259-5.217l-36.664-75.466-13.83 8.0709 36.139 74.371c0.795 1.628 1.93 3.065 3.328 4.216l7.634 6.272c1.98 1.62 4.948 0.179 4.885-2.377l-0.219-9.884-0.014 0.014z" fill="#4285F4"/>
 <path d="m127.84 70.18c-8.829 0-16 7.1851-16 16 0 8.8166 7.185 16 16 16 8.816 0 16-7.1835 16-16 0-8.815-7.184-16-16-16zm0 24.803c-4.844 0-8.803-3.9442-8.803-8.803 0-4.8572 3.945-8.803 8.803-8.803s8.804 3.9458 8.804 8.803c0 4.8588-3.946 8.803-8.804 8.803z" fill="#073042"/>
</svg>

<svg xmlns="http://www.w3.org/2000/svg" width="50" height="50" viewBox="0 0 256 256">
<rect width="256" height="256" rx="60" fill="#F4F2ED"/>
<path d="M103.856 227.535C100.481 226.733 97.6544 224.86 93.7001 220.804C87.0953 214.028 81.7329 211.205 72.4162 209.603C62.7496 207.939 58.4556 204.345 55.8735 195.765C52.6854 185.172 49.354 180.1 42.0341 174.693C33.7294 168.559 31.5995 163.151 33.6253 153.348C35.5027 144.27 34.7842 137.815 30.9715 129.516C26.4215 119.615 26.983 114.325 33.4444 106.213C39.3683 98.7751 41.2268 93.8599 42.1143 83.2888C43.0086 72.6204 45.9765 68.2445 54.718 64.7032C62.0123 61.7472 68.2536 56.6153 71.713 50.729C75.7135 43.9211 76.2972 43.1411 78.7769 41.2911C82.7774 38.3061 86.0115 37.4801 92.1709 37.8658C102.872 38.5365 108.606 37.2514 115.791 32.5734C125.159 26.4755 130.841 26.4755 140.208 32.5734C147.395 37.2514 153.13 38.5365 163.829 37.8658C173.948 37.2309 178.158 39.8865 184.326 50.7973C187.383 56.2023 193.629 61.4639 200.468 64.3909C210.206 68.5586 213.035 72.3627 213.754 82.2478C214.532 92.9537 216.727 98.939 222.542 106.213C229.017 114.309 229.582 119.605 225.028 129.516C221.217 137.815 220.497 144.27 222.374 153.348C224.402 163.151 222.27 168.559 213.967 174.693C206.647 180.1 203.316 185.172 200.128 195.765C197.546 204.345 193.25 207.939 183.585 209.603C174.246 211.209 168.881 214.04 162.3 220.826C155.005 228.349 149.776 229.59 139.579 226.219C131.238 223.461 124.816 223.449 116.51 226.176C110.69 228.086 107.589 228.419 103.856 227.535Z" fill="#FFFFFF"/>
<path d="M163.849 119.518C163.219 118.231 163.759 116.69 165.044 116.06C166.329 115.43 167.872 115.97 168.502 117.255C169.131 118.54 168.592 120.083 167.307 120.713C166.022 121.342 164.479 120.803 163.849 119.518ZM176.354 145.22C175.724 143.935 176.264 142.392 177.549 141.763C178.834 141.133 180.377 141.674 181.006 142.959C181.636 144.244 181.097 145.785 179.812 146.415C178.527 147.045 176.984 146.506 176.354 145.22ZM177.446 111.87C169.222 105.998 158.49 104.48 148.556 108.324L175.711 164.163C184.862 158.727 190.286 149.333 190.748 139.244L201.055 139.977C201.196 139.988 201.337 139.969 201.472 139.924C201.606 139.879 201.73 139.808 201.836 139.714C201.942 139.621 202.029 139.508 202.091 139.381C202.153 139.253 202.19 139.115 202.198 138.974C202.208 138.833 202.19 138.691 202.146 138.557C202.101 138.423 202.029 138.299 201.936 138.193C201.843 138.086 201.73 138 201.603 137.937C201.476 137.875 201.337 137.839 201.196 137.831L190.76 137.085C190.658 132.69 189.605 128.205 187.509 123.887C185.415 119.581 182.536 115.983 179.143 113.181L185.003 104.506C185.158 104.271 185.213 103.985 185.158 103.709C185.103 103.433 184.942 103.19 184.71 103.031C184.478 102.873 184.192 102.812 183.916 102.862C183.639 102.912 183.393 103.068 183.23 103.298L177.446 111.858" fill="#3DDC84"/>
<path d="M152.411 132.895C144.752 136.597 136.514 138.472 127.929 138.472C118.575 138.479 109.366 136.157 101.134 131.714C92.9024 127.272 85.9062 120.85 80.7772 113.027C79.9682 111.794 78.2974 111.498 77.1027 112.372L67.245 119.632C66.1271 120.455 65.8694 122.023 66.6528 123.18C73.3964 133.241 82.5153 141.484 93.2029 147.182C103.89 152.88 115.817 155.856 127.929 155.848C139.149 155.848 149.931 153.394 159.968 148.548L152.411 132.895ZM122.507 71.1185H133.174V59.3339C133.174 56.3899 130.783 54.0006 127.84 54.0006C124.896 54.0006 122.507 56.3899 122.507 59.3339V71.1185Z" fill="#4285F4"/>
<path d="M113.96 94.1227L77.2939 169.587C76.5013 171.214 76.0716 172.994 76.0344 174.804L75.8159 184.687C75.7647 187.245 78.7207 188.684 80.7004 187.065L88.3343 180.792C89.7353 179.645 90.8708 178.207 91.6623 176.579L127.801 102.18L113.972 94.1347L113.96 94.1227ZM179.656 174.792C179.619 172.979 179.182 171.206 178.397 169.575L141.733 94.1091L127.903 102.18L164.042 176.551C164.837 178.179 165.972 179.616 167.37 180.767L175.004 187.039C176.984 188.659 179.952 187.218 179.889 184.662L179.67 174.778L179.656 174.792Z" fill="#4285F4"/>
<path d="M127.839 70.1798C119.01 70.1798 111.839 77.3649 111.839 86.1799C111.839 94.9965 119.024 102.18 127.839 102.18C136.655 102.18 143.839 94.9965 143.839 86.1799C143.839 77.3649 136.655 70.1798 127.839 70.1798ZM127.839 94.9829C122.995 94.9829 119.036 91.0387 119.036 86.1799C119.036 81.3227 122.981 77.3769 127.839 77.3769C132.697 77.3769 136.643 81.3227 136.643 86.1799C136.643 91.0387 132.697 94.9829 127.839 94.9829Z" fill="#073042"/>
</svg>
